X: 1011
T: Dutches of Athole's Strathspey
C: C
%R: strathspey
B: Niel Gow & Sons "A Collection of Strathspey Reels, etc." v.1 p.1 #1
Z: 2022 John Chambers <jc:trillian.mit.edu>
M: C
L: 1/8
K: A
% - - - - - - - - - -
V: 1 staves=2
A |:\
E>Ac<A B>ATF2 | E<Ac<A eATc2 | d>fc<a B>ATF2 | E>Ac>A TB2A2 :: e>ca>c d/c/B/A/ TF2 |
e>ca>c e/c/e/f/ a2 | Tf>eac d/c/B/A/ TF2 | [EA,]>Ac<A B2A2 :: A,>.A.c.A. .F.B.G.E | A,AcA eAcA | df/d/ ca/c/ .F.B.G.E |
A,>Ac>A TB2A2 :: (A/B/c/d/ e)>c a<cG<E | (A/B/c/d/ e)<c a<ce<c | df/d/ ca/c/ .F.B.G.E | A,>Ac>A TB2A2 :|
% - - - - - - - - - -
% Voice 2 preserves the staff layout in the book.
V: 2 clef=bass middle=d
z |: a2a2 b2b2 | a2a2 a2a2 | c'2c'2 b2b2 | a2e2 A2A2 :: a2a2 b2b2 |
a2a2 a2a2 | d'2c'2 b2b2 | a2e2 A2A2 :: A2A2 B2B2 A2A2 A2A2 | d2c2 B2B2 |
A2e2 a2A2 :: a2a2 b2b2 | a2a2 a2a2 | d'2c'2 b2b2 a2e2 A2A2 :|


